public/images/icons/shopping-bag.svg

<svg width="18" height="18" viewBox="0 0 18 18" fill="none" xmlns="http://www.w3.org/2000/svg">
<path d="M4.875 1.5H13.125C13.2414 1.5 13.3563 1.52711 13.4604 1.57918C13.5646 1.63125 13.6551 1.70685 13.725 1.8L15.75 4.5V15.75C15.75 15.9489 15.671 16.1397 15.5303 16.2803C15.3897 16.421 15.1989 16.5 15 16.5H3C2.80109 16.5 2.61032 16.421 2.46967 16.2803C2.32902 16.1397 2.25 15.9489 2.25 15.75V4.5L4.275 1.8C4.34486 1.70685 4.43545 1.63125 4.53959 1.57918C4.64373 1.52711 4.75857 1.5 4.875 1.5ZM14.25 6H3.75V15H14.25V6ZM13.875 4.5L12.75 3H5.25L4.125 4.5H13.875ZM6.75 7.5V9C6.75 9.59674 6.98705 10.169 7.40901 10.591C7.83097 11.0129 8.40326 11.25 9 11.25C9.59674 11.25 10.169 11.0129 10.591 10.591C11.0129 10.169 11.25 9.59674 11.25 9V7.5H12.75V9C12.75 9.99456 12.3549 10.9484 11.6517 11.6517C10.9484 12.3549 9.99456 12.75 9 12.75C8.00544 12.75 7.05161 12.3549 6.34835 11.6517C5.64509 10.9484 5.25 9.99456 5.25 9V7.5H6.75Z" fill="#B1B1B1"/>
</svg>

<svg width="18" height="18" fill="none" xmlns="http://www.w3.org/2000/svg"><path d="M4.875 1.5h8.25a.75.75 0 01.6.3l2.025 2.7v11.25a.75.75 0 01-.75.75H3a.75.75 0 01-.75-.75V4.5l2.025-2.7a.75.75 0 01.6-.3zM14.25 6H3.75v9h10.5V6zm-.375-1.5L12.75 3h-7.5L4.125 4.5h9.75zm-7.125 3V9a2.25 2.25 0 004.5 0V7.5h1.5V9a3.75 3.75 0 01-7.5 0V7.5h1.5z" fill="#B1B1B1"/></svg>
